documentation/public/assets/images/04-tabs-visual.svg

<svg width="672" height="108" viewBox="0 0 672 108" fill="none" xmlns="http://www.w3.org/2000/svg">
<rect width="672" height="108" fill="#F6F6F6"/>
<rect width="210" height="44" transform="translate(231 32)" fill="white"/>
<line x1="231" y1="75.5" x2="441" y2="75.5" stroke="#EBEBEB"/>
<path d="M247.636 50.1307V48.3636H256.92V50.1307H253.324V60H251.233V50.1307H247.636ZM259.943 60.1761C259.39 60.1761 258.892 60.0777 258.449 59.8807C258.009 59.6799 257.661 59.3845 257.403 58.9943C257.15 58.6042 257.023 58.1231 257.023 57.5511C257.023 57.0587 257.114 56.6515 257.295 56.3295C257.477 56.0076 257.725 55.75 258.04 55.5568C258.354 55.3636 258.708 55.2178 259.102 55.1193C259.5 55.017 259.911 54.9432 260.335 54.8977C260.847 54.8447 261.261 54.7973 261.58 54.7557C261.898 54.7102 262.129 54.642 262.273 54.5511C262.42 54.4564 262.494 54.3106 262.494 54.1136V54.0795C262.494 53.6515 262.367 53.3201 262.114 53.0852C261.86 52.8504 261.494 52.733 261.017 52.733C260.513 52.733 260.114 52.8428 259.818 53.0625C259.527 53.2822 259.33 53.5417 259.227 53.8409L257.307 53.5682C257.458 53.0379 257.708 52.5947 258.057 52.2386C258.405 51.8788 258.831 51.6098 259.335 51.4318C259.839 51.25 260.396 51.1591 261.006 51.1591C261.426 51.1591 261.845 51.2083 262.261 51.3068C262.678 51.4053 263.059 51.5682 263.403 51.7955C263.748 52.0189 264.025 52.3239 264.233 52.7102C264.445 53.0966 264.551 53.5795 264.551 54.1591V60H262.574V58.8011H262.506C262.381 59.0436 262.205 59.2708 261.977 59.483C261.754 59.6913 261.472 59.8598 261.131 59.9886C260.794 60.1136 260.398 60.1761 259.943 60.1761ZM260.477 58.6648C260.89 58.6648 261.248 58.5833 261.551 58.4205C261.854 58.2538 262.087 58.0341 262.25 57.7614C262.417 57.4886 262.5 57.1913 262.5 56.8693V55.8409C262.436 55.8939 262.326 55.9432 262.17 55.9886C262.019 56.0341 261.848 56.0739 261.659 56.108C261.47 56.142 261.282 56.1723 261.097 56.1989C260.911 56.2254 260.75 56.2481 260.614 56.267C260.307 56.3087 260.032 56.3769 259.79 56.4716C259.547 56.5663 259.356 56.6989 259.216 56.8693C259.076 57.036 259.006 57.2519 259.006 57.517C259.006 57.8958 259.144 58.1818 259.42 58.375C259.697 58.5682 260.049 58.6648 260.477 58.6648ZM266.71 60V48.3636H268.767V52.7159H268.852C268.958 52.5038 269.108 52.2784 269.301 52.0398C269.494 51.7973 269.756 51.5909 270.085 51.4205C270.415 51.2462 270.835 51.1591 271.347 51.1591C272.021 51.1591 272.629 51.3314 273.17 51.6761C273.716 52.017 274.148 52.5227 274.466 53.1932C274.788 53.8598 274.949 54.678 274.949 55.6477C274.949 56.6061 274.792 57.4205 274.477 58.0909C274.163 58.7614 273.735 59.2727 273.193 59.625C272.652 59.9773 272.038 60.1534 271.352 60.1534C270.852 60.1534 270.438 60.0701 270.108 59.9034C269.778 59.7367 269.513 59.536 269.312 59.3011C269.116 59.0625 268.962 58.8371 268.852 58.625H268.733V60H266.71ZM268.727 55.6364C268.727 56.2008 268.807 56.6951 268.966 57.1193C269.129 57.5436 269.362 57.875 269.665 58.1136C269.972 58.3485 270.343 58.4659 270.778 58.4659C271.233 58.4659 271.614 58.3447 271.92 58.1023C272.227 57.8561 272.458 57.5208 272.614 57.0966C272.773 56.6686 272.852 56.1818 272.852 55.6364C272.852 55.0947 272.775 54.6136 272.619 54.1932C272.464 53.7727 272.233 53.4432 271.926 53.2045C271.619 52.9659 271.237 52.8466 270.778 52.8466C270.339 52.8466 269.966 52.9621 269.659 53.1932C269.352 53.4242 269.119 53.7481 268.96 54.1648C268.805 54.5814 268.727 55.072 268.727 55.6364ZM281.408 48.3636V60H279.3V50.4148H279.232L276.51 52.1534V50.2216L279.402 48.3636H281.408Z" fill="#0F67F5"/>
<line x1="231" y1="75" x2="300" y2="75" stroke="#0F67F5" stroke-width="2"/>
<path d="M316.773 49.6136V48.3636H325.5V49.6136H321.841V60H320.432V49.6136H316.773ZM328.874 60.2045C328.321 60.2045 327.819 60.1004 327.368 59.892C326.917 59.6799 326.559 59.375 326.294 58.9773C326.029 58.5758 325.896 58.0909 325.896 57.5227C325.896 57.0227 325.995 56.6174 326.192 56.3068C326.389 55.9924 326.652 55.7462 326.982 55.5682C327.311 55.3902 327.675 55.2576 328.072 55.1705C328.474 55.0795 328.877 55.0076 329.283 54.9545C329.813 54.8864 330.243 54.8352 330.572 54.8011C330.906 54.7633 331.148 54.7008 331.3 54.6136C331.455 54.5265 331.533 54.375 331.533 54.1591V54.1136C331.533 53.553 331.379 53.1174 331.072 52.8068C330.769 52.4962 330.309 52.3409 329.692 52.3409C329.052 52.3409 328.55 52.4811 328.186 52.7614C327.822 53.0417 327.567 53.3409 327.419 53.6591L326.146 53.2045C326.374 52.6742 326.677 52.2614 327.055 51.9659C327.438 51.6667 327.855 51.4583 328.305 51.3409C328.76 51.2197 329.207 51.1591 329.646 51.1591C329.927 51.1591 330.249 51.1932 330.612 51.2614C330.98 51.3258 331.334 51.4602 331.675 51.6648C332.019 51.8693 332.305 52.178 332.533 52.5909C332.76 53.0038 332.874 53.5568 332.874 54.25V60H331.533V58.8182H331.464C331.374 59.0076 331.222 59.2102 331.01 59.4261C330.798 59.642 330.516 59.8258 330.163 59.9773C329.811 60.1288 329.381 60.2045 328.874 60.2045ZM329.078 59C329.608 59 330.055 58.8958 330.419 58.6875C330.786 58.4792 331.063 58.2102 331.249 57.8807C331.438 57.5511 331.533 57.2045 331.533 56.8409V55.6136C331.476 55.6818 331.351 55.7443 331.158 55.8011C330.968 55.8542 330.749 55.9015 330.499 55.9432C330.252 55.9811 330.012 56.0152 329.777 56.0455C329.546 56.072 329.358 56.0947 329.214 56.1136C328.866 56.1591 328.54 56.233 328.237 56.3352C327.938 56.4337 327.696 56.5833 327.51 56.7841C327.328 56.9811 327.237 57.25 327.237 57.5909C327.237 58.0568 327.41 58.4091 327.754 58.6477C328.103 58.8826 328.544 59 329.078 59ZM335.503 60V48.3636H336.844V52.6591H336.957C337.056 52.5076 337.192 52.3144 337.366 52.0795C337.545 51.8409 337.798 51.6288 338.128 51.4432C338.461 51.2538 338.912 51.1591 339.48 51.1591C340.215 51.1591 340.863 51.3428 341.423 51.7102C341.984 52.0777 342.421 52.5985 342.736 53.2727C343.05 53.947 343.207 54.7424 343.207 55.6591C343.207 56.5833 343.05 57.3845 342.736 58.0625C342.421 58.7367 341.986 59.2595 341.429 59.6307C340.872 59.9981 340.23 60.1818 339.503 60.1818C338.942 60.1818 338.493 60.089 338.156 59.9034C337.819 59.714 337.56 59.5 337.378 59.2614C337.196 59.0189 337.056 58.8182 336.957 58.6591H336.798V60H335.503ZM336.821 55.6364C336.821 56.2955 336.918 56.8769 337.111 57.3807C337.304 57.8807 337.586 58.2727 337.957 58.5568C338.329 58.8371 338.783 58.9773 339.321 58.9773C339.882 58.9773 340.349 58.8295 340.724 58.5341C341.103 58.2348 341.387 57.8333 341.577 57.3295C341.77 56.822 341.866 56.2576 341.866 55.6364C341.866 55.0227 341.772 54.4697 341.582 53.9773C341.397 53.4811 341.115 53.089 340.736 52.8011C340.361 52.5095 339.889 52.3636 339.321 52.3636C338.776 52.3636 338.317 52.5019 337.946 52.7784C337.575 53.0511 337.295 53.4337 337.105 53.9261C336.916 54.4148 336.821 54.9848 336.821 55.6364ZM345.236 60V58.9773L349.077 54.7727C349.527 54.2803 349.899 53.8523 350.19 53.4886C350.482 53.1212 350.698 52.7765 350.838 52.4545C350.982 52.1288 351.054 51.7879 351.054 51.4318C351.054 51.0227 350.955 50.6686 350.759 50.3693C350.565 50.0701 350.3 49.839 349.963 49.6761C349.626 49.5133 349.247 49.4318 348.827 49.4318C348.38 49.4318 347.99 49.5246 347.656 49.7102C347.327 49.892 347.071 50.1477 346.889 50.4773C346.711 50.8068 346.622 51.1932 346.622 51.6364H345.281C345.281 50.9545 345.438 50.3561 345.753 49.8409C346.067 49.3258 346.495 48.9242 347.037 48.6364C347.582 48.3485 348.194 48.2045 348.872 48.2045C349.554 48.2045 350.158 48.3485 350.685 48.6364C351.211 48.9242 351.624 49.3125 351.923 49.8011C352.223 50.2898 352.372 50.8333 352.372 51.4318C352.372 51.8598 352.295 52.2784 352.139 52.6875C351.988 53.0928 351.723 53.5455 351.344 54.0455C350.969 54.5417 350.448 55.1477 349.781 55.8636L347.168 58.6591V58.75H352.577V60H345.236Z" fill="#333333"/>
<path d="M386.773 49.6136V48.3636H395.5V49.6136H391.841V60H390.432V49.6136H386.773ZM398.874 60.2045C398.321 60.2045 397.819 60.1004 397.368 59.892C396.917 59.6799 396.559 59.375 396.294 58.9773C396.029 58.5758 395.896 58.0909 395.896 57.5227C395.896 57.0227 395.995 56.6174 396.192 56.3068C396.389 55.9924 396.652 55.7462 396.982 55.5682C397.311 55.3902 397.675 55.2576 398.072 55.1705C398.474 55.0795 398.877 55.0076 399.283 54.9545C399.813 54.8864 400.243 54.8352 400.572 54.8011C400.906 54.7633 401.148 54.7008 401.3 54.6136C401.455 54.5265 401.533 54.375 401.533 54.1591V54.1136C401.533 53.553 401.379 53.1174 401.072 52.8068C400.769 52.4962 400.309 52.3409 399.692 52.3409C399.052 52.3409 398.55 52.4811 398.186 52.7614C397.822 53.0417 397.567 53.3409 397.419 53.6591L396.146 53.2045C396.374 52.6742 396.677 52.2614 397.055 51.9659C397.438 51.6667 397.855 51.4583 398.305 51.3409C398.76 51.2197 399.207 51.1591 399.646 51.1591C399.927 51.1591 400.249 51.1932 400.612 51.2614C400.98 51.3258 401.334 51.4602 401.675 51.6648C402.019 51.8693 402.305 52.178 402.533 52.5909C402.76 53.0038 402.874 53.5568 402.874 54.25V60H401.533V58.8182H401.464C401.374 59.0076 401.222 59.2102 401.01 59.4261C400.798 59.642 400.516 59.8258 400.163 59.9773C399.811 60.1288 399.381 60.2045 398.874 60.2045ZM399.078 59C399.608 59 400.055 58.8958 400.419 58.6875C400.786 58.4792 401.063 58.2102 401.249 57.8807C401.438 57.5511 401.533 57.2045 401.533 56.8409V55.6136C401.476 55.6818 401.351 55.7443 401.158 55.8011C400.968 55.8542 400.749 55.9015 400.499 55.9432C400.252 55.9811 400.012 56.0152 399.777 56.0455C399.546 56.072 399.358 56.0947 399.214 56.1136C398.866 56.1591 398.54 56.233 398.237 56.3352C397.938 56.4337 397.696 56.5833 397.51 56.7841C397.328 56.9811 397.237 57.25 397.237 57.5909C397.237 58.0568 397.41 58.4091 397.754 58.6477C398.103 58.8826 398.544 59 399.078 59ZM405.503 60V48.3636H406.844V52.6591H406.957C407.056 52.5076 407.192 52.3144 407.366 52.0795C407.545 51.8409 407.798 51.6288 408.128 51.4432C408.461 51.2538 408.912 51.1591 409.48 51.1591C410.215 51.1591 410.863 51.3428 411.423 51.7102C411.984 52.0777 412.421 52.5985 412.736 53.2727C413.05 53.947 413.207 54.7424 413.207 55.6591C413.207 56.5833 413.05 57.3845 412.736 58.0625C412.421 58.7367 411.986 59.2595 411.429 59.6307C410.872 59.9981 410.23 60.1818 409.503 60.1818C408.942 60.1818 408.493 60.089 408.156 59.9034C407.819 59.714 407.56 59.5 407.378 59.2614C407.196 59.0189 407.056 58.8182 406.957 58.6591H406.798V60H405.503ZM406.821 55.6364C406.821 56.2955 406.918 56.8769 407.111 57.3807C407.304 57.8807 407.586 58.2727 407.957 58.5568C408.329 58.8371 408.783 58.9773 409.321 58.9773C409.882 58.9773 410.349 58.8295 410.724 58.5341C411.103 58.2348 411.387 57.8333 411.577 57.3295C411.77 56.822 411.866 56.2576 411.866 55.6364C411.866 55.0227 411.772 54.4697 411.582 53.9773C411.397 53.4811 411.115 53.089 410.736 52.8011C410.361 52.5095 409.889 52.3636 409.321 52.3636C408.776 52.3636 408.317 52.5019 407.946 52.7784C407.575 53.0511 407.295 53.4337 407.105 53.9261C406.916 54.4148 406.821 54.9848 406.821 55.6364ZM419.168 60.1591C418.418 60.1591 417.749 60.0303 417.162 59.7727C416.579 59.5152 416.115 59.1572 415.77 58.6989C415.429 58.2367 415.243 57.7008 415.213 57.0909H416.645C416.675 57.4659 416.804 57.7898 417.031 58.0625C417.259 58.3314 417.556 58.5398 417.923 58.6875C418.291 58.8352 418.698 58.9091 419.145 58.9091C419.645 58.9091 420.088 58.822 420.474 58.6477C420.861 58.4735 421.164 58.2311 421.384 57.9205C421.603 57.6098 421.713 57.25 421.713 56.8409C421.713 56.4129 421.607 56.036 421.395 55.7102C421.183 55.3807 420.872 55.1231 420.463 54.9375C420.054 54.7519 419.554 54.6591 418.963 54.6591H418.031V53.4091H418.963C419.425 53.4091 419.83 53.3258 420.179 53.1591C420.531 52.9924 420.806 52.7576 421.003 52.4545C421.204 52.1515 421.304 51.7955 421.304 51.3864C421.304 50.9924 421.217 50.6496 421.043 50.358C420.868 50.0663 420.622 49.839 420.304 49.6761C419.99 49.5133 419.618 49.4318 419.19 49.4318C418.789 49.4318 418.41 49.5057 418.054 49.6534C417.702 49.7973 417.414 50.0076 417.19 50.2841C416.967 50.5568 416.846 50.8864 416.827 51.2727H415.463C415.486 50.6629 415.67 50.1288 416.014 49.6705C416.359 49.2083 416.81 48.8485 417.366 48.5909C417.927 48.3333 418.543 48.2045 419.213 48.2045C419.933 48.2045 420.55 48.3504 421.065 48.642C421.58 48.9299 421.976 49.3106 422.253 49.7841C422.529 50.2576 422.668 50.7689 422.668 51.3182C422.668 51.9735 422.495 52.5322 422.151 52.9943C421.81 53.4564 421.346 53.7765 420.759 53.9545V54.0455C421.493 54.1667 422.067 54.4792 422.48 54.983C422.893 55.483 423.099 56.1023 423.099 56.8409C423.099 57.4735 422.927 58.0417 422.582 58.5455C422.241 59.0455 421.776 59.4394 421.185 59.7273C420.594 60.0152 419.921 60.1591 419.168 60.1591Z" fill="#333333"/>
</svg>

<svg width="672" height="108" fill="none" xmlns="http://www.w3.org/2000/svg"><path fill="#F6F6F6" d="M0 0h672v108H0z"/><path fill="#fff" d="M231 32h210v44H231z"/><path stroke="#EBEBEB" d="M231 75.5h210"/><path d="M247.64 50.13v-1.77h9.28v1.77h-3.6V60h-2.09v-9.87h-3.6Zm12.3 10.05c-.55 0-1.05-.1-1.5-.3a2.5 2.5 0 0 1-1.04-.89 2.6 2.6 0 0 1-.38-1.44c0-.5.1-.9.28-1.22.18-.32.43-.58.74-.77.31-.2.67-.34 1.06-.44.4-.1.81-.18 1.23-.22l1.25-.14c.32-.05.55-.12.7-.2.14-.1.21-.25.21-.45v-.03c0-.43-.12-.76-.38-1-.25-.23-.62-.35-1.1-.35-.5 0-.9.11-1.2.33-.28.22-.48.48-.58.78l-1.92-.27a3.06 3.06 0 0 1 2.02-2.14 5.43 5.43 0 0 1 2.93-.13c.42.1.8.27 1.14.5.35.22.63.52.83.91.21.39.32.87.32 1.45V60h-1.98v-1.2h-.06a2.5 2.5 0 0 1-1.38 1.19c-.34.12-.73.19-1.19.19Zm.54-1.52c.41 0 .77-.08 1.07-.24.3-.17.54-.39.7-.66.17-.27.25-.57.25-.9v-1.02a.96.96 0 0 1-.33.15l-.51.12a16.2 16.2 0 0 1-1.05.16c-.3.04-.58.1-.82.2s-.43.23-.57.4a.97.97 0 0 0-.21.65c0 .38.13.66.41.85.28.2.63.3 1.06.3ZM266.7 60V48.36h2.06v4.36h.08c.1-.22.26-.44.45-.68.2-.24.46-.45.78-.62.34-.17.75-.26 1.27-.26a3.32 3.32 0 0 1 3.12 2.03c.32.67.48 1.49.48 2.46 0 .96-.16 1.77-.47 2.44a3.3 3.3 0 0 1-3.13 2.06 2.53 2.53 0 0 1-2.04-.85c-.2-.24-.35-.46-.46-.67h-.12V60h-2.02Zm2.02-4.36c0 .56.08 1.06.24 1.48.16.42.4.76.7 1 .3.23.67.35 1.1.35.46 0 .84-.13 1.15-.37.3-.24.54-.58.7-1 .15-.43.23-.92.23-1.46 0-.55-.08-1.03-.23-1.45a2.16 2.16 0 0 0-.7-.99c-.3-.23-.68-.35-1.14-.35-.44 0-.81.11-1.12.34-.3.23-.54.56-.7.97-.15.42-.23.91-.23 1.48Zm12.68-7.28V60h-2.11v-9.59h-.07l-2.72 1.74v-1.93l2.9-1.86h2Z" fill="#0F67F5"/><path stroke="#0F67F5" stroke-width="2" d="M231 75h69"/><path d="M316.77 49.61v-1.25h8.73v1.25h-3.66V60h-1.4V49.61h-3.67Zm12.1 10.6a3.5 3.5 0 0 1-1.5-.32 2.67 2.67 0 0 1-1.08-.91c-.26-.4-.4-.89-.4-1.46 0-.5.1-.9.3-1.21.2-.32.46-.56.8-.74.32-.18.69-.31 1.08-.4.4-.09.8-.16 1.21-.22l1.3-.15c.33-.04.57-.1.72-.19.15-.08.23-.23.23-.45v-.05c0-.56-.15-1-.46-1.3-.3-.31-.76-.47-1.38-.47a2.39 2.39 0 0 0-2.27 1.32l-1.27-.46a3.07 3.07 0 0 1 2.16-1.86 5.2 5.2 0 0 1 2.3-.08c.37.07.72.2 1.06.4.35.2.63.52.86.93.23.41.34.97.34 1.66V60h-1.34v-1.18h-.07a2.62 2.62 0 0 1-1.3 1.16c-.35.15-.78.22-1.29.22Zm.2-1.21c.54 0 .99-.1 1.35-.31a2.13 2.13 0 0 0 1.11-1.85v-1.23c-.05.07-.18.13-.37.2-.2.04-.41.1-.66.13a30.34 30.34 0 0 1-1.29.17c-.34.05-.67.12-.97.23-.3.1-.54.24-.73.44-.18.2-.27.47-.27.81 0 .47.17.82.51 1.06.35.23.8.35 1.33.35Zm6.43 1V48.36h1.34v4.3h.12l.4-.58c.19-.24.44-.45.77-.64s.78-.28 1.35-.28a3.46 3.46 0 0 1 3.26 2.11c.31.68.47 1.47.47 2.39 0 .92-.16 1.72-.47 2.4a3.42 3.42 0 0 1-3.23 2.12 2.8 2.8 0 0 1-1.35-.28 2.5 2.5 0 0 1-.78-.64 8.77 8.77 0 0 1-.42-.6h-.16V60h-1.3Zm1.32-4.36c0 .66.1 1.24.3 1.74.18.5.47.9.84 1.18.37.28.82.42 1.36.42a2.2 2.2 0 0 0 1.4-.45c.38-.3.67-.7.86-1.2.19-.5.29-1.07.29-1.7 0-.6-.1-1.16-.29-1.65a2.27 2.27 0 0 0-2.26-1.62 2.24 2.24 0 0 0-2.21 1.57 4.73 4.73 0 0 0-.29 1.7Zm8.42 4.36v-1.02l3.84-4.2c.45-.5.82-.93 1.11-1.3.3-.36.5-.7.65-1.03.14-.32.21-.66.21-1.02a1.9 1.9 0 0 0-1.09-1.75 2.58 2.58 0 0 0-1.13-.25c-.45 0-.84.1-1.17.28a1.9 1.9 0 0 0-.77.77 2.4 2.4 0 0 0-.27 1.16h-1.34a3.27 3.27 0 0 1 1.76-3 3.87 3.87 0 0 1 1.83-.44c.68 0 1.29.15 1.81.44a3.15 3.15 0 0 1 1.69 2.79c0 .43-.07.85-.23 1.26-.15.4-.42.86-.8 1.36-.37.5-.9 1.1-1.56 1.81l-2.61 2.8v.09h5.4V60h-7.33Zm41.53-10.39v-1.25h8.73v1.25h-3.66V60h-1.4V49.61h-3.67Zm12.1 10.6a3.5 3.5 0 0 1-1.5-.32 2.67 2.67 0 0 1-1.08-.91c-.26-.4-.4-.89-.4-1.46 0-.5.1-.9.3-1.21.2-.32.46-.56.8-.74.32-.18.69-.31 1.08-.4.4-.09.8-.16 1.21-.22l1.3-.15c.33-.04.57-.1.72-.19.15-.08.23-.23.23-.45v-.05c0-.56-.15-1-.46-1.3-.3-.31-.76-.47-1.38-.47a2.39 2.39 0 0 0-2.27 1.32l-1.27-.46a3.07 3.07 0 0 1 2.16-1.86 5.2 5.2 0 0 1 2.3-.08c.37.07.72.2 1.06.4.35.2.63.52.86.93.23.41.34.97.34 1.66V60h-1.34v-1.18h-.07a2.62 2.62 0 0 1-1.3 1.16c-.35.15-.78.22-1.29.22Zm.2-1.21c.54 0 .99-.1 1.35-.31a2.13 2.13 0 0 0 1.11-1.85v-1.23c-.05.07-.18.13-.37.2-.2.04-.41.1-.66.13a30.34 30.34 0 0 1-1.29.17c-.34.05-.67.12-.97.23-.3.1-.54.24-.73.44-.18.2-.27.47-.27.81 0 .47.17.82.51 1.06.35.23.8.35 1.33.35Zm6.43 1V48.36h1.34v4.3h.12l.4-.58c.19-.24.44-.45.77-.64s.78-.28 1.35-.28a3.46 3.46 0 0 1 3.26 2.11c.31.68.47 1.47.47 2.39 0 .92-.16 1.72-.47 2.4a3.42 3.42 0 0 1-3.23 2.12 2.8 2.8 0 0 1-1.35-.28 2.5 2.5 0 0 1-.78-.64 8.77 8.77 0 0 1-.42-.6h-.16V60h-1.3Zm1.32-4.36c0 .66.1 1.24.3 1.74.18.5.47.9.84 1.18.37.28.82.42 1.36.42a2.2 2.2 0 0 0 1.4-.45c.38-.3.67-.7.86-1.2.19-.5.29-1.07.29-1.7 0-.6-.1-1.16-.29-1.65a2.27 2.27 0 0 0-2.26-1.62 2.24 2.24 0 0 0-2.21 1.57 4.73 4.73 0 0 0-.29 1.7Zm12.35 4.52c-.75 0-1.42-.13-2-.39a3.44 3.44 0 0 1-1.4-1.07c-.34-.46-.53-1-.56-1.6h1.44c.03.37.15.69.38.96s.53.48.9.63c.36.15.77.22 1.21.22.5 0 .95-.09 1.33-.26.4-.18.7-.42.91-.73.22-.31.33-.67.33-1.08 0-.43-.1-.8-.31-1.13a2.1 2.1 0 0 0-.94-.77 3.5 3.5 0 0 0-1.5-.28h-.93V53.4h.93c.47 0 .87-.08 1.22-.25a1.89 1.89 0 0 0 1.13-1.77 2 2 0 0 0-.27-1.03 1.8 1.8 0 0 0-.74-.68 2.4 2.4 0 0 0-1.11-.25c-.4 0-.78.08-1.14.22-.35.15-.64.36-.86.63-.22.28-.34.6-.36 1h-1.37c.03-.62.21-1.15.55-1.61.35-.46.8-.82 1.36-1.08a4.37 4.37 0 0 1 3.7.05 3.09 3.09 0 0 1 1.6 2.68 2.62 2.62 0 0 1-1.9 2.64v.09c.72.12 1.3.43 1.71.93.41.5.62 1.12.62 1.86 0 .63-.17 1.2-.52 1.7-.34.5-.8.9-1.4 1.19a4.5 4.5 0 0 1-2.01.43Z" fill="#333"/></svg>
